images/blvgari.svg

<svg fill="none" height="10" viewBox="0 0 100 10" width="100" xmlns="http://www.w3.org/2000/svg"><path clip-rule="evenodd" d="m50.8453.538319c-1.9142-.012383-3.4637.469571-4.7136 1.408641-1.2631.93959-1.8878 2.08157-1.8878 3.50287 0 1.1676.6247 2.23396 1.6402 3.07165 1.2242 1.01523 2.9166 1.47204 4.9999 1.47204.8722 0 1.7711-.1397 2.4482-.31725 1.0025-.25376 2.3305-.83772 2.7338-1.70074l-.0258-1.28159c-.0259-.88846.0393-.92669.9767-.93918v-.30493h-3.5286v.30493c.3647 0 .6119-.01267.8332.1268.2085.15237.1561.83757.1561 1.10422l-.0126.77414c-.2996.55849-.99.86295-1.4844 1.0534-.4558.17775-1.2894.36796-2.0703.38065-1.3022.0127-2.3178-.34274-3.1642-.86294-.8594-.54601-1.6926-1.67511-1.6926-3.08398 0-1.35804.8856-2.47517 1.9273-3.17329.677-.45663 1.8226-.85019 2.9553-.83728.9768.0129 1.8884.24094 2.5522.60934.7554.40608 1.5627 1.23112 1.8618 1.84012l.2994-.11422-.4817-1.99258c-.5987-.35551-1.3412-.609541-2.0442-.774138-.7681-.178011-1.5494-.25378-2.2783-.266683zm-45.77293.21058c-1.33119.004689-2.65724.023767-5.0594645.014088l-.0129055.292093c.325469 0 .44285-.01283.638047.13938.182376.15273.208294.31723.208294.87603v5.9775c0 .50766.039038 1.0281-.078207 1.16762-.169142.19045-.286436.22855-.7030903.21586v.30443h4.9479563c1.35418 0 3.58061-.03794 4.49189-.7359.35169-.19029.98941-.77409.97641-1.76414 0-1.20568-.53363-1.57392-1.01539-1.84037-.42972-.22832-1.10674-.40589-1.90098-.53287.63792-.21562.7811-.27941 1.18473-.58393.41665-.29205.69044-.87564.69044-1.45947 0-1.52315-1.69297-2.005095-2.99485-2.06856-.48504-.003219-.92915-.00332-1.37288-.001761zm93.93563.014088-3.2292.01258v.266683c.5336.02528.6904.03818.7942.40606.0519.13984.0392.45669.0392.90094v5.80013c0 1.05331.0916 1.29467-.7681 1.29467v.29185h3.1897l-.0126-.29185c-.8724 0-.8337-.33021-.8337-1.29467v-5.80013c0-1.04072-.0259-1.307.8205-1.307zm-84.5293.012831v.329832c.3126 0 .443.01283.6251.11447.2085.12693.4689.71054.7813 1.30701l3.9062 7.20877h1.3151c.8073-1.56098 2.1091-4.09921 3.1118-6.01574.6769-1.26894 1.172-2.28424 1.3672-2.52519.1172-.13983.4427-.08932.6509-.08932v-.329832l-2.7341.01258v.317252c.026 0 .7942-.10127.716.38066-.0651.38078-3.1118 5.93991-3.4894 6.82836l-3.0341-5.57143c-.2213-.40659-.4035-.71105-.4945-.95201-.2476-.57118.1303-.68558.6512-.68558v-.329832zm69.4973.008555c-.1946-.001497-.4017-.000799-.6216.000261-.2932.001402-.6094.003774-.948.003774h-4.1659v.279262c.5728 0 .8074.1651.8074.81213v.67275 4.84811 1.54828c0 .48212-.3649.46932-.8074.45663v.33034h3.255v-.33034c-.5341 0-.8465-.05029-.8597-.67225v-2.63991c.3514.02523.6642 0 1.211 0 .1953 0 1.2366.01273 1.5494 0 1.1847 0 1.7316 1.37063 2.37 2.33524.5336.81225.2992 1.30726 3.7108 1.30726 0-.07616-.0258-.24135-.0258-.31751-1.4583.01269-1.7321-.83779-2.3573-1.92918-.5854-.98979-.7423-1.63702-2.2525-1.80213 2.2915-.41861 2.8908-1.43393 2.8908-2.5891-.0132-1.16713-.8982-1.89112-2.3439-2.208444-.3588-.078363-.8287-.100669-1.4123-.105163zm-52.4144.003773v.279264c.4558 0 .586.0381.7163.21611.1301.1646.1301.44385.1301.93918v4.30192 2.22127c0 .58393-.2343.68522-.7942.69791v.2921h8.1898l.9504-1.85295-.2992-.11448c-.3127.49503-1.0288.97742-2.1617.97742h-2.3697-1.9399v-6.91692c0-.41897.0782-.54544.1822-.64709.1563-.12692.2344-.10157.6381-.11447v-.279264zm34.6998.000261-3.7891 7.031143c-.3382.6347-.4684.85038-.6246 1.14222-.1826.30452-.287.50784-.9122.52053v.2536h2.8258l.0132-.29159c-.5082.01269-.7288-.02571-.7421-.46996 0-.13968.1302-.36763.3255-.71024l.5335-.91402h5.4686l.6515 1.07856c.4298.69816.3119.95212-.4561.99025v.317h3.3853v-.34266c-.8072 0-.7681-.21532-1.4843-1.4972l-3.9969-7.107633zm16.0784.645573c1.0008-.00586 2.0152.04298 2.658.34418.5468.25385 1.0025.5458 1.0025 1.4343 0 1.25645-.7943 1.58651-1.3935 1.80213-1.0545.26645-2.7864.17751-3.971.1902v-3.74414c.5077 0 1.1035-.02315 1.704-.02667zm-77.14793.07347c.79776-.00103 1.57889.02988 2.00861.29612.55974.3555.68993.60946.68993 1.14246 0 .32971-.2732.90143-.55958 1.11705-.6772.53311-1.88809.55828-2.78655.55828h-2.14851v-3.10964h2.005c.25718 0 .52519-.00391.7911-.00427zm61.38183.62645 2.3049 4.21336h-4.4921zm-61.45152 3.28348c1.3237-.00351 2.26348.04623 2.92439.5238.35154.25376.69018.69797.69018 1.23128 0 1.47212-1.88778 1.57369-3.74981 1.57369h-2.59117v-3.32525c.70305 0 1.43236.01269 2.1356 0 .20507-.0016.40172-.00303.59081-.00352z" fill="#fff" fill-rule="evenodd"/></svg>

<svg width="100" height="10" viewBox="0 0 100 10" fill="none" xmlns="http://www.w3.org/2000/svg">
<path fill-rule="evenodd" clip-rule="evenodd" d="M50.8453 0.538319C48.9311 0.525936 47.3816 1.00789 46.1317 1.94696C44.8686 2.88655 44.2439 4.02853 44.2439 5.44983C44.2439 6.61743 44.8686 7.68379 45.8841 8.52148C47.1083 9.53671 48.8007 9.99352 50.884 9.99352C51.7562 9.99352 52.6551 9.85382 53.3322 9.67627C54.3347 9.42251 55.6627 8.83855 56.066 7.97553L56.0402 6.69394C56.0143 5.80548 56.0795 5.76725 57.0169 5.75476V5.44983H53.4883V5.75476C53.853 5.75476 54.1002 5.74209 54.3215 5.88156C54.53 6.03393 54.4776 6.71913 54.4776 6.98578L54.465 7.75992C54.1654 8.31841 53.475 8.62287 52.9806 8.81332C52.5248 8.99107 51.6912 9.18128 50.9103 9.19397C49.6081 9.20667 48.5925 8.85123 47.7461 8.33103C46.8867 7.78502 46.0535 6.65592 46.0535 5.24705C46.0535 3.88901 46.9391 2.77188 47.9808 2.07376C48.6578 1.61713 49.8034 1.22357 50.9361 1.23648C51.9129 1.24938 52.8245 1.47742 53.4883 1.84582C54.2437 2.2519 55.051 3.07694 55.3501 3.68594L55.6495 3.57172L55.1678 1.57914C54.5691 1.22363 53.8266 0.969599 53.1236 0.805002C52.3555 0.626991 51.5742 0.551222 50.8453 0.538319ZM5.07237 0.748899C3.74118 0.753588 2.41513 0.772666 0.0129055 0.762987L0 1.05508C0.325469 1.05508 0.44285 1.04225 0.638047 1.19446C0.820423 1.34719 0.846341 1.51169 0.846341 2.07049V8.04799C0.846341 8.55565 0.885379 9.07609 0.768134 9.21561C0.598992 9.40606 0.481698 9.44416 0.0650437 9.43147V9.7359H5.013C6.36718 9.7359 8.59361 9.69796 9.50489 9C9.85658 8.80971 10.4943 8.22591 10.4813 7.23586C10.4813 6.03018 9.94767 5.66194 9.46591 5.39549C9.03619 5.16717 8.35917 4.9896 7.56493 4.86262C8.20285 4.647 8.34603 4.58321 8.74966 4.27869C9.16631 3.98664 9.4401 3.40305 9.4401 2.81922C9.4401 1.29607 7.74713 0.814125 6.44525 0.75066C5.96021 0.747441 5.5161 0.74734 5.07237 0.748899ZM99.008 0.762987L95.7788 0.775567V1.04225C96.3124 1.06753 96.4692 1.08043 96.573 1.44831C96.6249 1.58815 96.6122 1.905 96.6122 2.34925V8.14938C96.6122 9.20269 96.7038 9.44405 95.8441 9.44405V9.7359H99.0338L99.0212 9.44405C98.1488 9.44405 98.1875 9.11384 98.1875 8.14938V2.34925C98.1875 1.30853 98.1616 1.04225 99.008 1.04225V0.762987ZM14.4787 0.775818V1.10565C14.7913 1.10565 14.9217 1.11848 15.1038 1.22012C15.3123 1.34705 15.5727 1.93066 15.8851 2.52713L19.7913 9.7359H21.1064C21.9137 8.17492 23.2155 5.63669 24.2182 3.72016C24.8951 2.45122 25.3902 1.43592 25.5854 1.19497C25.7026 1.05514 26.0281 1.10565 26.2363 1.10565V0.775818L23.5022 0.788398V1.10565C23.5282 1.10565 24.2964 1.00438 24.2182 1.48631C24.1531 1.86709 21.1064 7.42622 20.7288 8.31467L17.6947 2.74324C17.4734 2.33665 17.2912 2.03219 17.2002 1.79123C16.9526 1.22005 17.3305 1.10565 17.8514 1.10565V0.775818H14.4787ZM83.976 0.784373C83.7814 0.782876 83.5743 0.783574 83.3544 0.784634C83.0612 0.786036 82.745 0.788408 82.4064 0.788408H78.2405V1.06767C78.8133 1.06767 79.0479 1.23277 79.0479 1.8798V2.55255V7.40066V8.94894C79.0479 9.43106 78.683 9.41826 78.2405 9.40557V9.73591H81.4955V9.40557C80.9614 9.40557 80.649 9.35528 80.6358 8.73332V6.09341C80.9872 6.11864 81.3 6.09341 81.8468 6.09341C82.0421 6.09341 83.0834 6.10614 83.3962 6.09341C84.5809 6.09341 85.1278 7.46404 85.7662 8.42865C86.2998 9.2409 86.0654 9.73591 89.477 9.73591C89.477 9.65975 89.4512 9.49456 89.4512 9.4184C87.9929 9.43109 87.7191 8.58061 87.0939 7.48922C86.5085 6.49943 86.3516 5.8522 84.8414 5.68709C87.1329 5.26848 87.7322 4.25316 87.7322 3.09799C87.719 1.93086 86.834 1.20687 85.3883 0.889546C85.0295 0.811183 84.5596 0.788877 83.976 0.784383V0.784373ZM31.5616 0.788146V1.06741C32.0174 1.06741 32.1476 1.10551 32.2779 1.28352C32.408 1.44812 32.408 1.72737 32.408 2.2227V6.52462V8.74589C32.408 9.32982 32.1737 9.43111 31.6138 9.4438V9.7359H39.8036L40.754 7.88295L40.4548 7.76847C40.1421 8.2635 39.426 8.74589 38.2931 8.74589H35.9234H33.9835V1.82897C33.9835 1.41 34.0617 1.28353 34.1657 1.18188C34.322 1.05496 34.4001 1.08031 34.8038 1.06741V0.788146H31.5616ZM66.2614 0.788407L62.4723 7.81955C62.1341 8.45425 62.0039 8.66993 61.8477 8.96177C61.6651 9.26629 61.5607 9.46961 60.9355 9.4823V9.7359H63.7613L63.7745 9.44431C63.2663 9.457 63.0457 9.4186 63.0324 8.97435C63.0324 8.83467 63.1626 8.60672 63.3579 8.26411L63.8914 7.35009H69.36L70.0115 8.42865C70.4413 9.12681 70.3234 9.38077 69.5554 9.4189V9.7359H72.9407V9.39324C72.1335 9.39324 72.1726 9.17792 71.4564 7.89604L67.4595 0.788407H66.2614ZM82.3398 1.43398C83.3406 1.42812 84.355 1.47696 84.9978 1.77816C85.5446 2.03201 86.0003 2.32396 86.0003 3.21246C86.0003 4.46891 85.206 4.79897 84.6068 5.01459C83.5523 5.28104 81.8204 5.1921 80.6358 5.20479V1.46065C81.1435 1.46065 81.7393 1.4375 82.3398 1.43398ZM5.19187 1.50745C5.98963 1.50642 6.77076 1.53733 7.20048 1.80357C7.76022 2.15907 7.89041 2.41303 7.89041 2.94603C7.89041 3.27574 7.61721 3.84746 7.33083 4.06308C6.65363 4.59619 5.44274 4.62136 4.54428 4.62136H2.39577V1.51172H4.40077C4.65795 1.51172 4.92596 1.50781 5.19187 1.50745ZM66.5737 2.1339L68.8786 6.34726H64.3865L66.5737 2.1339ZM5.12218 5.41738C6.44588 5.41387 7.38566 5.46361 8.04657 5.94118C8.39811 6.19494 8.73675 6.63915 8.73675 7.17246C8.73675 8.64458 6.84897 8.74615 4.98694 8.74615H2.39577V5.4209C3.09882 5.4209 3.82813 5.43359 4.53137 5.4209C4.73644 5.4193 4.93309 5.41787 5.12218 5.41738Z" fill="white"/>
</svg>
